!!!OTL: 107e. Der unglueckliche Hochzeitstag.
!!!ARE: Europa, Mitteleuropa, Deutschland, Kreis Wetzlar, Burgsolms
!!!SCT: E0107D
!!!TXL: @@DE
!!!YEM: Copyright 1995, estate of Helmut Schaffrath.
**kern	**text
*ICvox	*
*M6/8	*
*k[]	*
*C:	*
!LO:TX:a:t=Mäßig bewegt.	!
!LO:TX:a:t=Aus Burgſolms (Kr. Wetʒlar). K. Becker Nr. 4.	!
{16cL	Was
16eJ	.
=1	=1
4g	ſind
8g	die
8g	Gaſſen
8f	.
8d	ſo
=2	=2
4.g	en-
8e	-ge?
8r;}	.
{16cL	Jn
16eJ	.
=3	=3
4g	ei-
4g	-nem
8g	ſo
8g	gro-
8f	-ßen
8d	Ge-
=4	=4
4.g	-dränge,
8e	.
8r;}	.
{8c	da
=5	=5
4a	fiel
8a	dem
8g	Rei-
8a	-ter
8b	ſein
=6	=6
8ccL	blan-
8bJ	.
8a	-kes
4g;}	Schwert,
{8cc	der
=7	=7
8gL	jun-
8aJ	.
8g	-gen
8f	Braut
8e	in
8d	den
=8	=8
8aL	Fuß
8gJ	.
8f	es
4e}	fährt.
==	==
!!!AGN: erzaehlendes Volks - Lied, Sage, Liebe, Leid, Tod, Ballade ?
!!!ONB: ESAC (Essen Associative Code) Database: ERK1
!!!AMT: compound duple
!!!AIN: vox
!!!EED: Helmut Schaffrath
!!!EEV: 1.0
!!!GTL: Liebesgeschichten mit tragischem Schluss
!!!URL-scan: https://rosdok.uni-rostock.de/mcrviewer/recordIdentifier/rosdok_ppn745146120/iview2/phys_0448.iview2?x=-422.27491384562836&y=892.3727499446832&scale=0.554360769283424&rotation=0&layout=singlePageLayout
!!!ENC: Anna Maria Matuszewska
!!!EEV: 2024/02/12
*-	*-
